X:3089
T:Cleghorn's Rant
M:C
K:D
AA dd (f/e/d/c/) dA| g2fb Be/d/ {d}c{B}A|\
AA dd (f/e/d/c/) dA| g2Be dcd2||
AA Fd (e/f/g/).e fd| BG Ef gf ge|\
AA Ed e/f/g/e/ fd| "tr"^g2 ad' c'b "D.C."Ha2|]


